.local/share/icons/Gruvbox-Plus-Dark/panel/22/mullvad-tray-3.svg

<svg width="22" height="22" version="1.1" xmlns="http://www.w3.org/2000/svg">
  <defs>
    <style id="current-color-scheme" type="text/css">.ColorScheme-Text { color:#ebdbb2; } .ColorScheme-Highlight { color:#458588; } .ColorScheme-NeutralText { color:#fe8019; } .ColorScheme-PositiveText { color:#689d6a; } .ColorScheme-NegativeText { color:#fb4934; }</style>
  </defs>
  <path class="ColorScheme-Text" d="m11 3v3.311c0.05634-0.02177 0.1137-0.04154 0.1719-0.06055 0.565-0.185 1.225-0.25 1.828-0.25 0.734 0 1.455 0.3515 2.02 0.8984 0.564 0.547 0.9805 1.318 0.9805 2.195 0 0.689-0.1904 1.466-0.6094 2.051 0 0 0.0028 0.01906 0.0078 0.03906 6e-3 0.019 0.0213 0.01216 0.0293 0.1602 0.011 0.221-0.1661 0.4775-0.3281 0.5625-0.078 0.041-0.1488 0.05927-0.2188 0.07227 0.077 0.452 0.1678 0.9499 0.2988 1.461 0.181 0.712 0.4408 1.396 0.7168 1.756 0.254 0.33 0.01756 0.8067-0.3984 0.8047h-6.998c-0.3213-1e-3 -0.5589-0.3003-0.4863-0.6133 0.086-0.372 0.8034-1.725 0.8984-1.98 0.095-0.254 0.06212-0.3708 0.07813-0.3438 0.017 0.028-0.03738-0.0675-0.4844-0.0625-0.2833 3e-3 -0.5127-0.2287-0.5059-0.5117l0.0059-0.2695c-0.4079-0.3882-0.8953-0.7867-1.369-1.219h-3.637c0 4.418 3.582 8 8 8s8-3.582 8-8-3.582-8-8-8zm2 4c-0.524 0-1.115 0.06937-1.518 0.2012-0.201 0.0658-0.3499 0.1479-0.4199 0.209-0.068 0.061-0.0625 0.06264-0.0625 0.08984v0.8867c0.06596 0.1428 0.1394 0.2803 0.2207 0.4141 0.278 0.3486 0.5423 0.706 0.8633 0.9961 0.175 0.147 0.7751 0.5358 0.8711 0.5898 0.283 0.156 0.5838 0.3064 0.9258 0.4414 0.288 0.092 0.4196 0.104 0.5566 0.123 0.011-0.064-0.0075-0.1107 0.01953-0.1797 0.019-0.047 0.04512-0.09381 0.07813-0.1328 0.239-0.297 0.4648-1.044 0.4648-1.545 0-0.5586-0.2718-1.086-0.6758-1.477-0.403-0.3908-0.9322-0.6172-1.324-0.6172zm-2 3.131v0.8691h-2.807c0.2263 0.2121 0.4528 0.4269 0.6719 0.6465 0.0971 0.097 0.1497 0.2282 0.1465 0.3652l-0.0039 0.1953c0.312 0.076 0.6809 0.08084 0.8379 0.3398 0.2523 0.417 0.137 0.847 2e-3 1.209-0.135 0.362-0.5538 1.167-0.5918 1.244h5.508c-0.197-0.431-0.4307-0.8325-0.5527-1.311-0.173-0.677-0.2725-1.305-0.3555-1.816 0 0-0.4805-0.1838-0.5605-0.2188-0.414-0.165-0.9393-0.4045-1.57-0.8535-0.29-0.2064-0.5241-0.4403-0.7246-0.6699z" fill="currentColor" opacity=".3"/>
  <path class="ColorScheme-Text" d="m11 3a8 8 0 0 0-5.656 2.344 8 8 0 0 0-2.344 5.656h3.639c-0.3454-0.315-0.6855-0.646-0.9785-1.01-0.0532 0.0061-0.1067 0.0094-0.1602 0.0098-0.8284 0-1.5-0.6716-1.5-1.5s0.6716-1.5 1.5-1.5c0.6349 9e-4 1.2 0.4014 1.412 1 0.281-0.0015 1.886 0.0034 2.088 0v-0.5c0-0.2761 0.2239-0.5 0.5-0.5h0.738c0.067-0.111 0.074-0.2625 0.164-0.3418 0.176-0.1541 0.382-0.2539 0.598-0.3379zm0 4.5c0 0.2761-0.224 0.5-0.5 0.5 0.201-2e-4 0.382 0.1198 0.461 0.3047 0.011 0.026 0.027 0.0487 0.039 0.0742zm-4.088 1.5c-0.0605 0.1713-0.1522 0.33-0.2695 0.4688 0.43 0.4968 0.9845 1.008 1.543 1.531h2.814v-0.875c-0.264-0.3035-0.473-0.599-0.65-0.8125-0.14-0.1678-0.248-0.2568-0.334-0.3086z" fill="currentColor"/>
</svg>

<svg xmlns="http://www.w3.org/2000/svg" width="22" height="22" version="1.1">
 <defs>
  <style id="current-color-scheme" type="text/css">
   .ColorScheme-Text { color:#ebdbb2; } .ColorScheme-Highlight { color:#458588; }
  </style>
 </defs>
 <path style="opacity:0.3;fill:currentColor" class="ColorScheme-Text" d="M 11,3 A 8,8 0 0 0 3,11 8,8 0 0 0 11,19 8,8 0 0 0 19,11 8,8 0 0 0 11,3 Z M 13,6 C 13.734,6 14.455,6.3515 15.02,6.8984 15.584,7.4454 16,8.2164 16,9.0938 16,9.7828 15.81,10.56 15.391,11.145 15.391,11.145 15.393,11.164 15.398,11.184 15.404,11.203 15.42,11.196 15.428,11.344 15.439,11.565 15.262,11.821 15.1,11.906 15.022,11.947 14.951,11.967 14.881,11.98 14.958,12.432 15.049,12.93 15.18,13.441 15.361,14.153 15.62,14.835 15.896,15.195 16.15,15.525 15.914,16.002 15.498,16 H 8.5 C 8.1787,15.999 7.9411,15.7 8.0137,15.387 8.0997,15.015 8.8171,13.661 8.9121,13.406 9.0071,13.152 8.9742,13.037 8.9902,13.064 9.0072,13.092 8.9529,12.995 8.5059,13 8.2226,13.003 7.9932,12.771 8,12.488 L 8.0059,12.219 C 7.3009,11.548 6.3552,10.854 5.6602,9.9902 5.607,9.9963 5.5535,9.9996 5.5,10 4.6716,10 4,9.3284 4,8.5 4,7.6716 4.6716,7 5.5,7 6.1349,7.0009 6.7005,7.4014 6.9121,8 7.1931,7.9985 8.798,8.0034 9,8 V 7.5 C 9,7.2239 9.2239,7 9.5,7 H 10.238 C 10.305,6.889 10.312,6.7375 10.402,6.6582 10.625,6.463 10.889,6.3425 11.172,6.25 11.737,6.065 12.397,6 13,6 Z M 13,7 C 12.476,7 11.885,7.0694 11.482,7.2012 11.281,7.267 11.132,7.3491 11.062,7.4102 10.994,7.4712 11,7.4728 11,7.5 11,7.7761 10.776,8 10.5,8 10.701,7.9998 10.882,8.1198 10.961,8.3047 11.035,8.4783 11.124,8.6413 11.221,8.8008 11.499,9.1494 11.763,9.5068 12.084,9.7969 12.259,9.9439 12.859,10.333 12.955,10.387 13.238,10.543 13.539,10.693 13.881,10.828 14.169,10.92 14.301,10.932 14.438,10.951 14.449,10.887 14.43,10.84 14.457,10.771 14.476,10.724 14.502,10.678 14.535,10.639 14.774,10.342 15,9.5945 15,9.0938 15,8.5352 14.728,8.008 14.324,7.6172 13.921,7.2264 13.392,7 13,7 Z M 6.9121,9 C 6.8516,9.1713 6.7599,9.33 6.6426,9.4688 7.2486,10.169 8.1032,10.882 8.8652,11.646 8.9623,11.743 9.0149,11.875 9.0117,12.012 L 9.0078,12.207 C 9.3198,12.283 9.6887,12.288 9.8457,12.547 10.098,12.964 9.9827,13.394 9.8477,13.756 9.7127,14.118 9.2939,14.923 9.2559,15 H 14.764 C 14.567,14.569 14.333,14.167 14.211,13.689 14.038,13.012 13.938,12.384 13.855,11.873 13.855,11.873 13.375,11.689 13.295,11.654 12.881,11.489 12.356,11.25 11.725,10.801 11.049,10.32 10.662,9.6889 10.35,9.3125 10.21,9.1447 10.102,9.0557 10.016,9.0039 Z"/>
 <path style="fill:currentColor" class="ColorScheme-Text" d="M 11,3 A 8,8 0 0 0 5.3438,5.3438 8,8 0 0 0 3,11 H 6.6387 C 6.2933,10.685 5.9532,10.354 5.6602,9.9902 5.607,9.9963 5.5535,9.9996 5.5,10 4.6716,10 4,9.3284 4,8.5 4,7.6716 4.6716,7 5.5,7 6.1349,7.0009 6.7005,7.4014 6.9121,8 7.1931,7.9985 8.798,8.0034 9,8 V 7.5 C 9,7.2239 9.2239,7 9.5,7 H 10.238 C 10.305,6.889 10.312,6.7375 10.402,6.6582 10.578,6.5041 10.784,6.4043 11,6.3203 Z M 11,7.5 C 11,7.7761 10.776,8 10.5,8 10.701,7.9998 10.882,8.1198 10.961,8.3047 10.972,8.3307 10.988,8.3534 11,8.3789 Z M 6.9121,9 C 6.8516,9.1713 6.7599,9.33 6.6426,9.4688 7.0726,9.9656 7.6271,10.477 8.1855,11 H 11 V 10.125 C 10.736,9.8215 10.527,9.526 10.35,9.3125 10.21,9.1447 10.102,9.0557 10.016,9.0039 Z"/>
</svg>
